symbols/web/outbox/materialsymbolssharp/outbox_grad200fill1_20px.svg

<svg xmlns="http://www.w3.org/2000/svg" height="20" width="20"><path d="M8.833 11.917V8.375L7.646 9.562 6.188 8.125l3.791-3.813 3.813 3.813-1.48 1.437-1.187-1.187v3.542Zm-7 6.25V1.833h16.334v16.334Zm8.209-5.188q.854 0 1.583-.448t1.271-1.239h2.979V4.125H4.125v7.167h3.021q.542.791 1.292 1.239.75.448 1.604.448Z"/></svg>

<svg xmlns="http://www.w3.org/2000/svg" height="20" width="20"><path d="M8.833 11.917V8.375L7.646 9.562L6.188 8.125L9.979 4.312L13.792 8.125L12.312 9.562L11.125 8.375V11.917ZM1.833 18.167V1.833H18.167V18.167ZM10.042 12.979Q10.896 12.979 11.625 12.531Q12.354 12.083 12.896 11.292H15.875V4.125H4.125V11.292H7.146Q7.688 12.083 8.438 12.531Q9.188 12.979 10.042 12.979Z"/></svg>
